X:1
T:Violin Caprice No. 9
T:Violin Caprice No. 9
T:"La Chasse"
T:Niccolò Paganini
T:Op. 1, No. 9
C:Niccolò Paganini
L:1/8
Q:1/4=90
M:2/4
K:E
V:1 treble nm="Violin" snm="Vln."
V:1
"^Allegretto""_dolce"!p!"^Sulla Tastiera imitando il Flauto" [gb]/[fa]/ | %1
 [eg][eg]/[Bf]/ [Ge][gb]/[fa]/ | [eg][eg]/[Bf]/ [Ge][Ge]/[Bf]/ | [eg][Bf]/[eg]/ [fa][Bf]/[fa]/ | %4
 [gb][fa]/[eg]/ [Bf][gb]/[fa]/ | [eg][eg]/[Bf]/ [Ge][gb]/[fa]/ | [eg][eg]/[Bf]/ [Ge][Ge]/[Bf]/ | %7
 [eg][fa]/[eg]/ [Bf][eg]/[Bf]/ | [Ge]2 z!f!"^imitando il Corno sulla G e D" [G,E]/[EG]/ | %9
 [B,F][EG]/[FA]/ [GB][Ac]/[GB]/ | [FA][EG]/[FA]/ [B,F][G,E]/[EG]/ | %11
 [B,F][EG]/[FA]/ [GB][Ac]/[GB]/ | [FA][EG]/[FA]/ [B,F]!p!"^sulla Tastiera" [gb]/[fa]/ | %13
 [eg][eg]/[Bf]/ [Ge]!f!"^sul G e D" [GB]/[FA]/ | [EG][EG]/[B,F]/ [G,E] |"^Tastiera"!p! [Ge]/[Bf]/ | %16
 [eg][fa]/[eg]/ [Bf][eg]/[Bf]/ | [Ge]2 z |[K:G]!f! .b | .[EBb](.a/.g/ .[^DBa])(.g/.f/ | %20
 .[EBg])(.f/.e/ .[CGg])"^simile".f/.e/ | .[B,Gg].f/.e/ .[^A,Ge].^d/.e/ | ([B,Gg]2 [B,Ff])=d | %23
 [G,DBg]f/g/ [Dda]g/a/ | [G,Gdb]a/b/ [CGec']d'/e'/ | [DBg]a/b/ [Dca]d'/f/ | [G,DBg]2 z b | %27
 [^DBa]g/f/ [EBg]f/e/ | [B,F^d]B/c/ Bb | [^DBa]g/f/ [EBg]f/e/ | [^DBb]^a/c'/ bb | %31
 [^Gee']d'/b/ [Aec']b/a/ | [Fdd']c'/a/ [Gdb]a/g/ | [Ecc']b/g/ [Fca]g/f/ | [^DBb]a/f/ [EBg]f/e/ | %35
 [CGg]f/e/ [^A,Gg]f/e/ | [B,F^d]e/f/ [CGe]f/g/ | [A,=Fc]a/=f/ [B,Be]^f/^d/ | [Ee]2 z | %39
[K:E]!p! [gb]/[fa]/ | [eg][eg]/[Bf]/ [Ge][gb]/[fa]/ | [eg][eg]/[Bf]/ [Ge][Ge]/[Bf]/ | %42
 [eg][Bf]/[eg]/ [fa][Bf]/[fa]/ | [gb][fa]/[eg]/ [Bf][gb]/[fa]/ | [eg][eg]/[Bf]/ [Ge][gb]/[fa]/ | %45
 [eg][eg]/[Bf]/ [Ge][Ge]/[Bf]/ | [eg][fa]/[eg]/ [Bf][eg]/[Bf]/ | [Ge]2 z!f! [G,E]/[EG]/ | %48
 [B,F][EG]/[FA]/ [GB][Ac]/[GB]/ | [FA][EG]/[FA]/ [B,F][G,E]/[EG]/ | %50
 [B,F][EG]/[FA]/ [GB][Ac]/[GB]/ | [FA][EG]/[FA]/ [B,F]!p! [gb]/[fa]/ | %52
 [eg][eg]/[Bf]/ [Ge]!f! [GB]/[FA]/ | [EG][EG]/[B,F]/ [G,E]!p! [Ge]/[Bf]/ | %54
 [eg][fa]/[eg]/ [Bf][eg]/[Bf]/ | [Ge]2 z |[K:C]!f! [Ee] | !>![Aa]3 !>![Ee] | %58
 !>![Cc]!>![A,A] z/4 (A/4B/4c/4d/4e/4^f/4^g/4) | %59
!8va(! (a/b/4c'/4d'/4e'/4^f'/4^g'/4 a')(.c''/.b'/) | (Ta'2 ^g')!8va)! [Dd] | !>![=F=f]3 !>![Dd] | %62
 !>![B,B]!>![^G,^G] z/4 (B/4c/4d/4e/4^f/4^g/4a/4) | %63
!8va(! (b/c'/4d'/4e'/4^f'/4^g'/4a'/4 b')(.d''/.c''/) | (Tb'2 a')!8va)! e' | %65
 .a' (.E/4.D/4.^C/4.B,/4 .A,) (.a'/4.g'/4.f'/4.e'/4) | .f' (.A/4.G/4.F/4.E/4) .D .f' | %67
 .d' (.D/4.C/4.B,/4.A,/4) .G, (.g'/4.f'/4.e'/4.d'/4) | .e' (.G/4.F/4.E/4.D/4 .C) .e' | %69
 .d' (.d/4.c/4.B/4.A/4 .^G) .d' | .c' (.e/4.d/4.c/4.B/4 .A) (.c/4.B/4.A/4.G/4 | %71
 .F) (.A/4.G/4.F/4.E/4 .^D) (.c'/4.a/4.f/4.^d/4 | .e) (.e/4.B/4.^G/4.B/4 .E)!f! .[=G=g] | %73
 !>![cc']3 !>![Gg] | !>![Ee]!>![Cc] z/4 (c/4d/4e/4f/4g/4a/4b/4) | %75
!8va(! (c'/d'/4e'/4f'/4g'/4a'/4b'/4 c'')(.e''/.d''/) | (Tc''2 b')!8va)! [Dd] | !>![Ff]3 !>![Dd] | %78
 !>![B,B]!>![G,G] z/4 (B/4c/4d/4e/4f/4g/4a/4) |!8va(! (b/c'/4d'/4e'/4f'/4g'/4a'/4 b')(.f''/.e''/) | %80
 (Td''2 c'')!8va)! .g | .c' (.G/4.F/4.E/4.D/4 .C) (.c'/4.e'/4.g'/4.e'/4 | %82
 .f') (.c/4._B/4.A/4.G/4 .F) .f' | .d' (.A/4.G/4.^F/4.E/4 .D) (.d'/4.^f'/4.a'/4.f'/4) | %84
 .g' (.d/4.c/4.B/4.A/4) .G .g' | .e' (.B/4.A/4.^G/4.^F/4 .E) (.e'/4.^g'/4.b'/4.g'/4 | %86
 .a') (.e/4.d/4.c/4.B/4 .A) (.e/4.c/4.A/4.G/4 | .F) (.f'/4.a'/4.c''/4.a'/4 .f') (.f/4.c/4.A/4.F/4 | %88
 .E) (.e'/4.a'/4.c''/4.a'/4 .e') (.e/4.c/4.A/4.E/4 | %89
 .^D) (.^d'/4.a'/4.c''/4.a'/4 .d') (.^d/4.c/4.A/4.^F/4 | %90
 .E) (.e'/4.g'/4.b'/4.g'/4 .e') (.B/4.G/4.E/4.=D/4 | .C) (.e/4.g/4.c'/4.g/4 .e) (.c/4.A/4.E/4.C/4 | %92
 .B,) (.e/4.g/4.b/4.g/4 .e) (.B/4.G/4.E/4.B,/4 | .^A,) (.e/4.g/4.^a/4.g/4 .e) (.^A/4.G/4.E/4.^C/4 | %94
 .B,) (.^d'/4.b'/4.^f'/4.d'/4 .b) (.a/4.b/4.a/4.^f/4 | %95
 .e) (.e/4.g/4.e/4.d/4 .c) (.c/4.e/4.c/4.^A/4 | .B) (.^d/4.b/4.^f/4.e/4 .B) (.A/4.B/4.A/4.^F/4 | %97
 .E) (.E/4.G/4.E/4.D/4 .C) (.C/4.E/4.C/4.^A,/4 | .B,) (6:4:6(.B,/4.^D/4.^F/4.B/4.^d/4.^f/4) b | %99
[K:E]!p! [gb]/[fa]/ | [eg][eg]/[Bf]/ [Ge][gb]/[fa]/ | [eg][eg]/[Bf]/ [Ge][Ge]/[Bf]/ | %102
 [eg][Bf]/[eg]/ [fa][Bf]/[fa]/ | [gb][fa]/[eg]/ [Bf][gb]/[fa]/ | [eg][eg]/[Bf]/ [Ge][gb]/[fa]/ | %105
 [eg][eg]/[Bf]/ [Ge][Ge]/[Bf]/ | [eg][fa]/[eg]/ [Bf][eg]/[Bf]/ | [Ge]2 z!f! [G,E]/[EG]/ | %108
 [B,F][EG]/[FA]/ [GB][Ac]/[GB]/ | [FA][EG]/[FA]/ [B,F][G,E]/[EG]/ | %110
 [B,F][EG]/[FA]/ [GB][Ac]/[GB]/ | [FA][EG]/[FA]/ [B,F]!p! [gb]/[fa]/ | %112
 [eg][eg]/[Bf]/ [Ge]!f! [GB]/[FA]/ | [EG][EG]/[B,F]/ [G,E]!p! [Ge]/[Bf]/ | %114
 [eg][fa]/[eg]/ [Bf][eg]/[Bf]/ | [Ge]2 [Bf][eg]/[Bf]/ | [Ge]>[Ge] [Ge]2 |] %117

